X: 28745
T: My Heart's In New South Wales
R: waltz
M: 3/4
K: Aminor
AB|:"Am" c2 cd eA|"Dm" d3 e g2|"Am" a2 e3d|cB {B} A2 A2|"F" f3 e d2|"Am" e2 A3 A|
K:A
"B7" B3 A B2|"E" E4 D2|"A" C3 E A2|"Bm" D3 F B2|"E" B3 c d2|"A" e2 A2 A2|
[1 C3 E A2|"Bm" D2 B2 G2|"A" A6-|A4 AB:|2 "G" =g3 f d2|"A" e2 A2 ed|"Bm" B2 A2 "E" G2|"A" A4 cd||
|:e3 a f2|"Bm" A3 f d2|"E" F3 d F2|"A" E3 c E2|1 e2 c2 f2|"Bm" d2 B2 e2|"A" c2 B2 A2|"E" E4 cd:|
[2 "A" D3 B A2m|"Bm" G3 f G2|"A" A6-|A4 cd|e3 a f2|"Bm" A3 f d2|"E" F3 d F2|
"A" E3 c E2|e2 c2 f2|"Bm" d2 B2 e2|"A" c2 B2 A2|"E" E2 _E2 D2|"A" C3 E A2|
"Bm" D3 F B2|"E" B3 c d2|"A" e2 A2 A2|C3 E A2|"Bm" D2 B2 "E"G2|"A" A6-|A6||

